X:23016
T:Walter Bulwer's Polka #1
R:Polka
C:Trad.
O:England
Z:Paul Hardy's Session Tunebook 2015 (see www.paulhardy.net). Creative Commons cc by-nc-sa licenced.
M:4/4
L:1/8
Q:1/4=140
K:G
|:Bc|"G"dcBd g3f|"Am"e2A2A2AB|"D7"cBAc f3e|"G"d2B2 "D7"B2Bc|
"G"dcBd g3f|"Am"e2A2A3G|"D7"FGAB cdef|"G"g2g2g2:|
[K:D]|:fg|"D"a2fg a2fg|"Em"agfg e4|"A7"e2a2gf e2|"D"dcde fefg|
"D"a2fg a2fg|"Em"agfg e4|"A7"e2a2gf e2|"D"d6:|

